src/actions/16/speaker.svg

<svg viewBox="0 0 16 16" xmlns="http://www.w3.org/2000/svg">
 <defs>
  <style type="text/css">.ColorScheme-Text {
        color:#2e3440;
      }</style>
 </defs>
 <path class="ColorScheme-Text" d="m8 2a6 6 0 0 0-4.002 1.5371 0.5 0.5 0 0 0 0.0019531-0.037109 0.5 0.5 0 0 0-0.5-0.5 0.5 0.5 0 0 0-0.5 0.5 0.5 0.5 0 0 0 0.5 0.5 0.5 0.5 0 0 0 0.039062-0.0019531 6 6 0 0 0-1.5391 4.002 6 6 0 0 0 1.5371 4.002 0.5 0.5 0 0 0-0.037109-0.001953 0.5 0.5 0 0 0-0.5 0.5 0.5 0.5 0 0 0 0.5 0.5 0.5 0.5 0 0 0 0.5-0.5 0.5 0.5 0 0 0-0.0019531-0.039062 6 6 0 0 0 4.002 1.5391 6 6 0 0 0 4.002-1.5371 0.5 0.5 0 0 0-0.001953 0.037109 0.5 0.5 0 0 0 0.5 0.5 0.5 0.5 0 0 0 0.5-0.5 0.5 0.5 0 0 0-0.5-0.5 0.5 0.5 0 0 0-0.039062 0.001953 6 6 0 0 0 1.5391-4.002 6 6 0 0 0-1.5371-4.002 0.5 0.5 0 0 0 0.037109 0.0019531 0.5 0.5 0 0 0 0.5-0.5 0.5 0.5 0 0 0-0.5-0.5 0.5 0.5 0 0 0-0.5 0.5 0.5 0.5 0 0 0 0.001953 0.039062 6 6 0 0 0-4.002-1.5391zm0 1a5 5 0 0 1 5 5 5 5 0 0 1-5 5 5 5 0 0 1-5-5 5 5 0 0 1 5-5zm0 4a1 1 0 0 0-1 1 1 1 0 0 0 1 1 1 1 0 0 0 1-1 1 1 0 0 0-1-1z" fill="currentColor"/>
</svg>

<svg xmlns="http://www.w3.org/2000/svg" viewBox="0 0 16 16">
  <defs id="defs3051">
    <style type="text/css" id="current-color-scheme">
      .ColorScheme-Text {
        color:#2e3440;
      }
      </style>
  </defs>
  <path 
     style="fill:currentColor;fill-opacity:1;stroke:none" 
     d="M 8 2 A 6 5.999985 0 0 0 3.9980469 3.5371094 A 0.5 0.5 0 0 0 4 3.5 A 0.5 0.5 0 0 0 3.5 3 A 0.5 0.5 0 0 0 3 3.5 A 0.5 0.5 0 0 0 3.5 4 A 0.5 0.5 0 0 0 3.5390625 3.9980469 A 6 5.999985 0 0 0 2 8 A 6 5.999985 0 0 0 3.5371094 12.001953 A 0.5 0.5 0 0 0 3.5 12 A 0.5 0.5 0 0 0 3 12.5 A 0.5 0.5 0 0 0 3.5 13 A 0.5 0.5 0 0 0 4 12.5 A 0.5 0.5 0 0 0 3.9980469 12.460938 A 6 5.999985 0 0 0 8 14 A 6 5.999985 0 0 0 12.001953 12.462891 A 0.5 0.5 0 0 0 12 12.5 A 0.5 0.5 0 0 0 12.5 13 A 0.5 0.5 0 0 0 13 12.5 A 0.5 0.5 0 0 0 12.5 12 A 0.5 0.5 0 0 0 12.460938 12.001953 A 6 5.999985 0 0 0 14 8 A 6 5.999985 0 0 0 12.462891 3.9980469 A 0.5 0.5 0 0 0 12.5 4 A 0.5 0.5 0 0 0 13 3.5 A 0.5 0.5 0 0 0 12.5 3 A 0.5 0.5 0 0 0 12 3.5 A 0.5 0.5 0 0 0 12.001953 3.5390625 A 6 5.999985 0 0 0 8 2 z M 8 3 A 5 5 0 0 1 13 8 A 5 5 0 0 1 8 13 A 5 5 0 0 1 3 8 A 5 5 0 0 1 8 3 z M 8 7 A 1 1 0 0 0 7 8 A 1 1 0 0 0 8 9 A 1 1 0 0 0 9 8 A 1 1 0 0 0 8 7 z "
     class="ColorScheme-Text"/>
</svg>
